src/assets/bold/lm-paragraph-sign-bold.svg

<svg width="24" height="24" viewBox="0 0 24 24" fill="none" xmlns="http://www.w3.org/2000/svg" fill="currentColor">
<path d="M8 13.8125C8 13.3983 7.66421 13.0625 7.25 13.0625H2.75C2.33579 13.0625 2 13.3983 2 13.8125C2 14.2267 2.33579 14.5625 2.75 14.5625H7.25C7.66421 14.5625 8 14.2267 8 13.8125Z" fill="black"/>
<path d="M8 9.78125C8 9.36704 7.66421 9.03125 7.25 9.03125L2.75 9.03125C2.33579 9.03125 2 9.36704 2 9.78125C2 10.1955 2.33579 10.5313 2.75 10.5313L7.25 10.5312C7.66421 10.5312 8 10.1955 8 9.78125Z" fill="black"/>
<path d="M20 5.75C20 5.33579 19.6642 5 19.25 5H2.75C2.33579 5 2 5.33579 2 5.75C2 6.16421 2.33579 6.5 2.75 6.5H19.25C19.6642 6.5 20 6.16421 20 5.75Z" fill="black"/>
<path d="M8 17.8438C8 17.4295 7.66421 17.0938 7.25 17.0938L2.75 17.0938C2.33579 17.0938 2 17.4295 2 17.8438C2 18.258 2.33579 18.5938 2.75 18.5938L7.25 18.5938C7.66421 18.5938 8 18.258 8 17.8438Z" fill="black"/>
<path d="M20.8377 14.2183C20.7254 14.0934 20.5756 14.031 20.4134 14.031C18.9032 14.031 18.5287 13.494 18.5038 13.3067C18.5038 13.1694 18.4788 13.0445 18.4039 12.9321C18.329 12.8197 18.2167 12.7323 18.1044 12.6948C17.9795 12.6574 17.8423 12.6574 17.7174 12.7073C17.5926 12.7573 17.4928 12.8447 17.4179 12.9696C16.7938 14.006 16.4568 14.031 16.4319 14.031C16.1947 14.031 15.7579 13.2318 15.5832 12.2953C15.5582 12.1829 15.5083 12.0705 15.4334 11.9956C15.3585 11.9082 15.2586 11.8457 15.1463 11.8208C15.034 11.7958 14.9216 11.7958 14.8093 11.8332C14.697 11.8707 14.6096 11.9456 14.5347 12.033C13.7734 13.0695 13.2117 13.5814 12.8123 13.8187C13.1743 12.9196 13.4489 12.1204 13.6361 11.4337C13.998 10.0726 14.023 9.11108 13.6985 8.49922C13.5487 8.21202 13.1868 7.75 12.4004 7.75C11.4768 7.75 10.7529 8.64906 10.4284 10.2224C10.2412 11.1215 10.2037 12.1204 10.341 12.9696C10.4658 13.7687 10.728 14.3806 11.1149 14.7677C10.5532 16.0039 9.89171 17.3275 9.09292 18.801C9.05547 18.8759 9.01803 18.9508 9.00555 19.0258C8.99307 19.1007 9.00555 19.1881 9.00555 19.263C9.01803 19.3379 9.05547 19.4253 9.1054 19.4878C9.15532 19.5502 9.20525 19.6126 9.28013 19.6626C9.34254 19.7125 9.41743 19.7375 9.5048 19.75C9.52976 19.75 9.5672 19.75 9.59216 19.75C9.64209 19.75 9.69201 19.75 9.74194 19.725C9.81683 19.7001 9.89171 19.6626 9.95412 19.6126C10.0165 19.5627 10.0665 19.5003 10.1039 19.4253C10.9651 17.827 11.6266 16.5034 12.1883 15.2547C12.2132 15.2547 12.2257 15.2547 12.2507 15.2547C12.9995 15.2547 13.8233 14.7302 14.7594 13.6688C15.1713 14.6928 15.7329 15.2422 16.4069 15.2547H16.4319C16.9062 15.2547 17.368 14.98 17.8423 14.4305C18.2417 14.8301 18.9905 15.2547 20.4134 15.2547C20.5756 15.2547 20.7254 15.1922 20.8377 15.0674C20.9501 14.955 21 14.7927 21 14.6303C21 14.468 20.9376 14.3057 20.8377 14.1933V14.2183ZM11.6765 13.469C11.4019 12.7698 11.3395 11.5835 11.5767 10.5096C11.7764 9.53564 12.1508 9.01119 12.4004 9.01119C12.6126 9.01119 12.6376 9.07362 12.6625 9.12357C12.7624 9.32336 12.9995 10.2224 11.6765 13.469Z" fill="black"/>
</svg>

<svg xmlns="http://www.w3.org/2000/svg" width="24" height="24" fill="currentColor" viewBox="0 0 24 24">
  <path d="M8 13.813a.75.75 0 0 0-.75-.75h-4.5a.75.75 0 0 0 0 1.5h4.5a.75.75 0 0 0 .75-.75Zm0-4.032a.75.75 0 0 0-.75-.75h-4.5a.75.75 0 0 0 0 1.5h4.5a.75.75 0 0 0 .75-.75ZM20 5.75a.75.75 0 0 0-.75-.75H2.75a.75.75 0 0 0 0 1.5h16.5a.75.75 0 0 0 .75-.75ZM8 17.844a.75.75 0 0 0-.75-.75h-4.5a.75.75 0 1 0 0 1.5h4.5a.75.75 0 0 0 .75-.75Zm12.838-3.626a.559.559 0 0 0-.425-.187c-1.51 0-1.884-.537-1.91-.724a.609.609 0 0 0-.4-.612.59.59 0 0 0-.386.012.609.609 0 0 0-.3.263c-.623 1.036-.96 1.061-.985 1.061-.237 0-.674-.8-.849-1.736a.62.62 0 0 0-.15-.3.53.53 0 0 0-.287-.174.62.62 0 0 0-.337.012.628.628 0 0 0-.274.2c-.762 1.037-1.323 1.548-1.723 1.786.362-.9.637-1.699.824-2.385.362-1.361.387-2.323.063-2.935-.15-.287-.512-.749-1.299-.749-.923 0-1.647.9-1.972 2.472-.187.9-.224 1.898-.087 2.748.125.799.387 1.41.774 1.798A64.095 64.095 0 0 1 9.093 18.8a.836.836 0 0 0-.087.225c-.013.075 0 .162 0 .237.012.075.05.162.1.225.05.062.1.125.174.175a.45.45 0 0 0 .225.087h.087c.05 0 .1 0 .15-.025a.691.691 0 0 0 .212-.112.551.551 0 0 0 .15-.188 64.61 64.61 0 0 0 2.084-4.17h.063c.748 0 1.572-.525 2.508-1.586.412 1.024.974 1.573 1.648 1.586h.025c.474 0 .936-.275 1.41-.825.4.4 1.149.825 2.571.825a.559.559 0 0 0 .425-.188.613.613 0 0 0 .162-.437.673.673 0 0 0-.162-.437v.025Zm-9.162-.749c-.274-.7-.337-1.885-.1-2.96.2-.973.575-1.498.824-1.498.213 0 .238.063.262.113.1.2.337 1.098-.986 4.345Z"/>
</svg>
